src/assets/img/ratenkauf-logo.svg

<?xml version="1.0" encoding="UTF-8"?>
<svg width="238px" height="52px" viewBox="0 0 238 52" version="1.1" xmlns="http://www.w3.org/2000/svg" xmlns:xlink="http://www.w3.org/1999/xlink">
    <defs></defs>
    <g id="Symbols" stroke="none" stroke-width="1" fill="none" fill-rule="evenodd">
        <g id="ratenkauf-logo" transform="translate(-5.000000, -7.000000)">
            <g id="logo" transform="translate(5.000000, 7.000000)">
                <path d="M14.3838906,9.30835866 L14.1255319,15.1472644 L13.0556231,15.1472644 C8.92264438,15.1472644 6.6718845,17.2635258 6.6718845,22.0082067 L6.6718845,27.73769 L0.768389058,27.73769 L0.768389058,9.41778116 L6.6718845,9.41778116 L6.6718845,12.9208207 C8.00015198,10.7316109 10.0297872,9.16246201 13.0556231,9.16246201 C13.5723404,9.16246201 13.9416413,9.19893617 14.3838906,9.30835866" id="Fill-80" fill="#005DA9"></path>
                <path d="M29.9105623,18.5775076 C29.9105623,15.7674772 27.7707447,13.8335866 25.3718085,13.8335866 C22.7889818,13.8335866 20.9075228,15.7674772 20.9075228,18.5775076 C20.9075228,21.4240122 22.7889818,23.3214286 25.3718085,23.3214286 C27.7707447,23.3214286 29.9105623,21.4240122 29.9105623,18.5775076 Z M35.8148176,27.7370821 L29.9105623,27.7370821 L29.9105623,26.2781155 C28.4713526,27.5547112 26.5526596,28.2849544 24.1544833,28.2849544 C19.2471884,28.2849544 15.1142097,24.3799392 15.1142097,18.5775076 C15.1142097,12.8115502 19.2471884,8.87082067 24.1544833,8.87082067 C26.5526596,8.87082067 28.4713526,9.60030395 29.9105623,10.8776596 L29.9105623,9.41793313 L35.8148176,9.41793313 L35.8148176,27.7370821 Z" id="Fill-82" fill="#005DA9"></path>
                <path d="M53.3040274,26.9344225 C51.8648176,27.7003799 50.3518997,28.2847264 48.2485562,28.2847264 C43.6360942,28.2847264 40.868617,25.8029635 40.868617,20.9860942 L40.868617,14.0522036 L37.5114742,14.0522036 L37.5114742,9.41770517 L40.868617,9.41770517 L40.868617,4.01724924 L46.7728723,4.01724924 L46.7728723,9.41770517 L52.2341185,9.41770517 L52.2341185,14.0522036 L46.7728723,14.0522036 L46.7728723,20.4017477 C46.7728723,22.299924 47.6953647,23.0658815 49.2447568,23.0658815 C50.0570669,23.0658815 51.1634498,22.7740881 51.9385258,22.3363982 L53.3040274,26.9344225 Z" id="Fill-84" fill="#005DA9"></path>
                <path d="M59.6058511,16.4976444 L67.2441489,16.4976444 C66.6901976,14.5272796 65.2145137,13.6146657 63.5169453,13.6146657 C61.8566109,13.6146657 60.1590426,14.6367021 59.6058511,16.4976444 Z M73.0739362,20.0736322 L59.4956687,20.0736322 C59.975152,22.2636018 61.4880699,23.6139058 63.4804711,23.6139058 C64.8452128,23.6139058 66.4318389,23.2848784 67.4280395,21.4968845 L72.6681611,22.5553951 C71.081535,26.4239362 67.7236322,28.2848784 63.4804711,28.2848784 C58.1301672,28.2848784 53.7023556,24.3798632 53.7023556,18.5774316 C53.7023556,12.8114742 58.1301672,8.87074468 63.5169453,8.87074468 C68.7570669,8.87074468 72.9629939,12.5926292 73.0739362,18.5774316 L73.0739362,20.0736322 Z" id="Fill-86" fill="#005DA9"></path>
                <path d="M94.356459,16.4976444 L94.356459,27.737766 L88.4901976,27.737766 L88.4901976,17.7385258 C88.4901976,15.5850304 87.1984043,14.125304 85.3161854,14.125304 C82.9917173,14.125304 81.4787994,15.6944529 81.4787994,19.2347264 L81.4787994,27.737766 L75.575304,27.737766 L75.575304,9.41785714 L81.4787994,9.41785714 L81.4787994,11.1693769 C82.8807751,9.70965046 84.8367021,8.87074468 87.1611702,8.87074468 C91.4780395,8.87074468 94.356459,11.8996201 94.356459,16.4976444" id="Fill-88" fill="#005DA9"></path>
                <polygon id="Fill-90" fill="#005DA9" points="110.783131 27.737386 104.768693 21.1317629 103.698784 21.1317629 103.698784 27.737386 97.7952888 27.737386 97.7952888 1.46231003 103.698784 1.46231003 103.698784 15.6583587 104.510334 15.6583587 110.377356 9.4174772 117.498176 9.4174772 109.381155 18.1401216 118.34772 27.737386"></polygon>
                <path d="M132.08465,18.5775076 C132.08465,15.7674772 129.944073,13.8335866 127.545897,13.8335866 C124.96307,13.8335866 123.080851,15.7674772 123.080851,18.5775076 C123.080851,21.4240122 124.96307,23.3214286 127.545897,23.3214286 C129.944073,23.3214286 132.08465,21.4240122 132.08465,18.5775076 Z M137.988906,27.7370821 L132.08465,27.7370821 L132.08465,26.2781155 C130.645441,27.5547112 128.726748,28.2849544 126.327812,28.2849544 C121.420517,28.2849544 117.288298,24.3799392 117.288298,18.5775076 C117.288298,12.8115502 121.420517,8.87082067 126.327812,8.87082067 C128.726748,8.87082067 130.645441,9.60030395 132.08465,10.8776596 L132.08465,9.41793313 L137.988906,9.41793313 L137.988906,27.7370821 Z" id="Fill-92" fill="#005DA9"></path>
                <path d="M160.190426,27.737386 L154.28617,27.737386 L154.28617,25.9858663 C152.884195,27.4455927 150.929027,28.2844985 148.603799,28.2844985 C144.28693,28.2844985 141.407751,25.2556231 141.407751,20.6575988 L141.407751,9.4174772 L147.275532,9.4174772 L147.275532,19.4174772 C147.275532,21.5702128 148.567325,23.0299392 150.448784,23.0299392 C152.774012,23.0299392 154.28617,21.4607903 154.28617,17.9205167 L154.28617,9.4174772 L160.190426,9.4174772 L160.190426,27.737386 Z" id="Fill-94" fill="#005DA9"></path>
                <path d="M176.004407,9.41778116 L176.004407,14.0522796 L170.912462,14.0522796 L170.912462,27.73769 L165.045441,27.73769 L165.045441,14.0522796 L162.388906,14.0522796 L162.388906,9.41778116 L165.045441,9.41778116 L165.045441,7.99452888 C165.045441,3.68829787 168.034043,0.951215805 172.499088,0.951215805 C173.752888,0.951215805 174.970973,1.20729483 176.151824,1.71793313 L174.897264,6.24300912 C174.344073,6.0606383 173.752888,5.95121581 173.310638,5.95121581 C171.908663,5.95121581 170.912462,6.79012158 170.912462,8.24984802 L170.912462,9.41778116 L176.004407,9.41778116 Z" id="Fill-96" fill="#005DA9"></path>
                <path d="M60.0484802,43.9031915 C60.0484802,42.5194529 59.1221884,41.5673252 57.8509119,41.5673252 C56.6700608,41.5673252 55.6161094,42.5194529 55.6161094,43.9031915 C55.6161094,45.3044073 56.6700608,46.2382979 57.8509119,46.2382979 C59.1221884,46.2382979 60.0484802,45.3044073 60.0484802,43.9031915 M62.900304,43.9031915 C62.900304,46.7603343 60.8661094,48.6828267 58.449696,48.6828267 C57.2696049,48.6828267 56.3243161,48.3226444 55.6161094,47.6942249 L55.6161094,48.4130699 L52.7103343,48.4130699 L52.7103343,35.4761398 L55.6161094,35.4761398 L55.6161094,40.1113982 C56.3243161,39.4829787 57.2696049,39.1235562 58.449696,39.1235562 C60.8661094,39.1235562 62.900304,41.0642857 62.900304,43.9031915" id="Fill-98" fill="#005DA9"></path>
                <polygon id="Fill-100" fill="#005DA9" points="68.3101064 51.4677812 65.1680091 51.4677812 66.6391337 48.1075988 62.8610182 39.375076 65.9848784 39.375076 68.1467325 44.6395137 70.4529635 39.375076 73.5775836 39.375076"></polygon>
                <path d="M81.2800912,42.8787994 L85.0399696,42.8787994 C84.7671733,41.9084347 84.0407295,41.4593465 83.2056231,41.4593465 C82.3879939,41.4593465 81.5528875,41.962386 81.2800912,42.8787994 Z M87.9100304,44.6394377 L81.2253799,44.6394377 C81.4617021,45.7177052 82.206383,46.3825988 83.187386,46.3825988 C83.8591185,46.3825988 84.6402736,46.2207447 85.1303951,45.3408055 L87.7101824,45.8613222 C86.9290274,47.7663374 85.2762918,48.6827508 83.187386,48.6827508 C80.5536474,48.6827508 78.3735562,46.7602584 78.3735562,43.9031155 C78.3735562,41.0642097 80.5536474,39.1234802 83.2056231,39.1234802 C85.7846505,39.1234802 87.8553191,40.956307 87.9100304,43.9031155 L87.9100304,44.6394377 Z" id="Fill-102" fill="#005DA9"></path>
                <path d="M96.0259119,43.9031915 C96.0259119,42.5194529 94.9727204,41.5673252 93.7918693,41.5673252 C92.5205927,41.5673252 91.5943009,42.5194529 91.5943009,43.9031915 C91.5943009,45.3044073 92.5205927,46.2382979 93.7918693,46.2382979 C94.9727204,46.2382979 96.0259119,45.3044073 96.0259119,43.9031915 Z M98.9324468,48.4130699 L96.0259119,48.4130699 L96.0259119,47.6942249 C95.3177052,48.3226444 94.3731763,48.6828267 93.1923252,48.6828267 C90.7766717,48.6828267 88.7424772,46.7603343 88.7424772,43.9031915 C88.7424772,41.0642857 90.7766717,39.1235562 93.1923252,39.1235562 C94.3731763,39.1235562 95.3177052,39.4829787 96.0259119,40.1113982 L96.0259119,39.3925532 L98.9324468,39.3925532 L98.9324468,48.4130699 Z" id="Fill-104" fill="#005DA9"></path>
                <path d="M103.114438,45.4844985 C103.241337,46.2572948 103.949544,46.5445289 104.731459,46.5445289 C105.493617,46.5445289 105.91155,46.2208207 105.91155,45.8256839 C105.91155,45.5202128 105.675228,45.2869301 105.003495,45.1607903 L103.150152,44.8013678 C101.461702,44.4958967 100.498936,43.5977204 100.498936,42.1782675 C100.498936,40.3272036 102.115198,39.1235562 104.422188,39.1235562 C106.692705,39.1235562 108.200304,40.1478723 108.563526,41.7109422 L105.91155,42.2322188 C105.820365,41.675228 105.275532,41.1721884 104.385714,41.1721884 C103.604559,41.1721884 103.35076,41.5490881 103.35076,41.8727964 C103.35076,42.1243161 103.459422,42.3758359 104.040729,42.5012158 L106.184347,42.9328267 C107.909271,43.2922492 108.708663,44.3165653 108.708663,45.6455927 C108.708663,47.6402736 106.964742,48.6828267 104.567325,48.6828267 C102.424468,48.6828267 100.590122,47.9100304 100.280851,46.0589666 L103.114438,45.4844985 Z" id="Fill-106" fill="#005DA9"></path>
                <polygon id="Fill-108" fill="#005DA9" points="114.316793 51.4677812 111.174696 51.4677812 112.645821 48.1075988 108.867705 39.375076 111.991565 39.375076 114.153419 44.6395137 116.45965 39.375076 119.584271 39.375076"></polygon>
                <path d="M132.696884,43.9031915 C132.134574,46.9214286 129.681687,48.6828267 126.557827,48.6828267 C122.943085,48.6828267 120.092021,45.9335866 120.092021,42.3933131 C120.092021,38.8720365 122.943085,36.1045593 126.557827,36.1045593 C129.554787,36.1045593 132.0981,37.8651976 132.679407,40.7231003 L129.736398,41.4054711 C129.354939,39.66231 128.120137,38.8180851 126.557827,38.8180851 C124.632295,38.8180851 123.088982,40.3454407 123.088982,42.3933131 C123.088982,44.4419453 124.632295,45.987538 126.557827,45.987538 C128.1019,45.987538 129.337462,45.125076 129.754635,43.3279635 L132.696884,43.9031915 Z" id="Fill-110" fill="#005DA9"></path>
                <path d="M140.993541,39.3389818 L140.866641,42.2143617 L140.339286,42.2143617 C138.305091,42.2143617 137.197188,43.256155 137.197188,45.5920213 L137.197188,48.4134498 L134.291413,48.4134498 L134.291413,39.3929331 L137.197188,39.3929331 L137.197188,41.1178571 C137.851444,40.0395897 138.850684,39.2675532 140.339286,39.2675532 C140.593845,39.2675532 140.775456,39.2850304 140.993541,39.3389818" id="Fill-112" fill="#005DA9"></path>
                <path d="M144.396657,42.8787994 L148.156535,42.8787994 C147.883739,41.9084347 147.157295,41.4593465 146.322188,41.4593465 C145.504559,41.4593465 144.668693,41.962386 144.396657,42.8787994 Z M151.026596,44.6394377 L144.341945,44.6394377 C144.578267,45.7177052 145.322948,46.3825988 146.303951,46.3825988 C146.975684,46.3825988 147.756839,46.2207447 148.24696,45.3408055 L150.826748,45.8613222 C150.045593,47.7663374 148.392097,48.6827508 146.303951,48.6827508 C143.669453,48.6827508 141.490122,46.7602584 141.490122,43.9031155 C141.490122,41.0642097 143.669453,39.1234802 146.322188,39.1234802 C148.900456,39.1234802 150.971884,40.956307 151.026596,43.9031155 L151.026596,44.6394377 Z" id="Fill-114" fill="#005DA9"></path>
                <path d="M159.142477,43.9031915 C159.142477,42.5194529 158.088526,41.5673252 156.908435,41.5673252 C155.636398,41.5673252 154.710106,42.5194529 154.710106,43.9031915 C154.710106,45.3044073 155.636398,46.2382979 156.908435,46.2382979 C158.088526,46.2382979 159.142477,45.3044073 159.142477,43.9031915 Z M162.048252,48.4130699 L159.142477,48.4130699 L159.142477,47.6942249 C158.433511,48.3226444 157.488982,48.6828267 156.308891,48.6828267 C153.893237,48.6828267 151.858283,46.7603343 151.858283,43.9031915 C151.858283,41.0642857 153.893237,39.1235562 156.308891,39.1235562 C157.488982,39.1235562 158.433511,39.4829787 159.142477,40.1113982 L159.142477,35.4761398 L162.048252,35.4761398 L162.048252,48.4130699 Z" id="Fill-116" fill="#005DA9"></path>
                <path d="M164.056231,48.4133739 L166.962766,48.4133739 L166.962766,39.3928571 L164.056231,39.3928571 L164.056231,48.4133739 Z M167.199088,36.7340426 C167.199088,37.649696 166.490881,38.3328267 165.509878,38.3328267 C164.528875,38.3328267 163.838906,37.649696 163.838906,36.7340426 C163.838906,35.8533435 164.528875,35.0987842 165.509878,35.0987842 C166.490881,35.0987842 167.199088,35.8533435 167.199088,36.7340426 Z" id="Fill-118" fill="#005DA9"></path>
                <path d="M175.690881,48.0177812 C174.981915,48.3954407 174.237994,48.6826748 173.20228,48.6826748 C170.931763,48.6826748 169.569301,47.4607903 169.569301,45.0884498 L169.569301,41.675076 L167.916565,41.675076 L167.916565,39.3931611 L169.569301,39.3931611 L169.569301,36.7335866 L172.475836,36.7335866 L172.475836,39.3931611 L175.164286,39.3931611 L175.164286,41.675076 L172.475836,41.675076 L172.475836,44.8012158 C172.475836,45.7358663 172.929483,46.112766 173.692401,46.112766 C174.092097,46.112766 174.63693,45.9691489 175.019149,45.7533435 L175.690881,48.0177812 Z" id="Fill-120" fill="#005DA9"></path>
                <path d="M237.095061,24.774772 C237.095061,37.299848 226.941565,47.4533435 214.416489,47.4533435 C201.890653,47.4533435 191.737918,37.299848 191.737918,24.774772 C191.737918,12.2489362 201.890653,2.09544073 214.416489,2.09544073 C226.941565,2.09544073 237.095061,12.2489362 237.095061,24.774772" id="Fill-121" fill="#005DA9"></path>
                <path d="M216.966109,10.306155 L210.667477,10.306155 C206.760182,10.306155 203.593769,13.4733283 203.593769,17.3806231 L203.593769,31.5303191 C203.593769,27.6230243 206.760182,24.4558511 210.667477,24.4558511 L216.966109,24.4543313 C220.873404,24.4543313 224.040578,21.2871581 224.040578,17.3806231 C224.040578,13.4733283 220.873404,10.306155 216.966109,10.306155" id="Fill-122" fill="#FFFFFF"></path>
                <path d="M210.667705,24.4551672 C206.844757,24.4551672 203.739134,27.4886018 203.606155,31.2788754 L203.593237,31.2788754 L203.593237,38.6025836 L210.667705,38.6025836 L210.917705,38.6025836 L225.453419,38.6025836 L210.667705,24.4551672 Z" id="Fill-123" fill="#EC6608"></path>
            </g>
        </g>
    </g>
</svg>

<svg width="238" height="52" xmlns="http://www.w3.org/2000/svg"><g fill="none" fill-rule="evenodd"><path d="M14.384 9.308l-.258 5.84h-1.07c-4.133 0-6.384 2.116-6.384 6.86v5.73H.768V9.418h5.904v3.503C8 10.73 10.03 9.162 13.056 9.162c.516 0 .886.037 1.328.146M29.91 18.578c0-2.81-2.14-4.744-4.538-4.744-2.583 0-4.464 1.933-4.464 4.744 0 2.846 1.881 4.743 4.464 4.743 2.399 0 4.539-1.897 4.539-4.743zm5.905 9.16H29.91v-1.46c-1.44 1.277-3.358 2.007-5.757 2.007-4.907 0-9.04-3.905-9.04-9.707 0-5.766 4.133-9.707 9.04-9.707 2.399 0 4.317.73 5.757 2.007v-1.46h5.904v18.32zM53.304 26.934c-1.44.766-2.952 1.35-5.055 1.35-4.613 0-7.38-2.481-7.38-7.298v-6.934H37.51V9.418h3.358v-5.4h5.904v5.4h5.461v4.634h-5.461v6.35c0 1.898.922 2.664 2.472 2.664.812 0 1.918-.292 2.694-.73l1.365 4.598zM59.606 16.498h7.638c-.554-1.97-2.03-2.883-3.727-2.883-1.66 0-3.358 1.022-3.911 2.883zm13.468 3.576H59.496c.48 2.19 1.992 3.54 3.984 3.54 1.365 0 2.952-.33 3.948-2.117l5.24 1.058c-1.586 3.869-4.944 5.73-9.188 5.73-5.35 0-9.778-3.905-9.778-9.708 0-5.766 4.428-9.706 9.815-9.706 5.24 0 9.446 3.722 9.557 9.706v1.497zM94.356 16.498v11.24H88.49v-10c0-2.153-1.292-3.613-3.174-3.613-2.324 0-3.837 1.57-3.837 5.11v8.503h-5.904V9.418h5.904v1.751c1.402-1.46 3.358-2.298 5.682-2.298 4.317 0 7.195 3.029 7.195 7.627M110.783 27.737l-6.014-6.605h-1.07v6.605h-5.904V1.462h5.904v14.196h.811l5.867-6.24h7.121l-8.117 8.722 8.967 9.597z" fill="#005DA9"/><path d="M132.085 18.578c0-2.81-2.14-4.744-4.54-4.744-2.582 0-4.464 1.933-4.464 4.744 0 2.846 1.882 4.743 4.465 4.743 2.398 0 4.539-1.897 4.539-4.743zm5.904 9.16h-5.904v-1.46c-1.44 1.277-3.358 2.007-5.757 2.007-4.907 0-9.04-3.905-9.04-9.707 0-5.766 4.133-9.707 9.04-9.707 2.399 0 4.317.73 5.757 2.007v-1.46h5.904v18.32zM160.19 27.737h-5.904v-1.751c-1.402 1.46-3.357 2.298-5.682 2.298-4.317 0-7.196-3.028-7.196-7.626V9.418h5.868v10c0 2.152 1.291 3.612 3.173 3.612 2.325 0 3.837-1.57 3.837-5.11V9.418h5.904v18.32zM176.004 9.418v4.634h-5.092v13.686h-5.867V14.052h-2.656V9.418h2.656V7.995c0-4.307 2.989-7.044 7.454-7.044 1.254 0 2.472.256 3.653.767l-1.255 4.525c-.553-.182-1.144-.292-1.586-.292-1.402 0-2.399.84-2.399 2.299v1.168h5.092zM60.048 43.903c0-1.384-.926-2.336-2.197-2.336-1.18 0-2.235.952-2.235 2.336 0 1.401 1.054 2.335 2.235 2.335 1.271 0 2.197-.934 2.197-2.335m2.852 0c0 2.857-2.034 4.78-4.45 4.78-1.18 0-2.126-.36-2.834-.989v.72H52.71V35.475h2.906v4.635c.708-.628 1.654-.987 2.834-.987 2.416 0 4.45 1.94 4.45 4.78M68.31 51.468h-3.142l1.471-3.36-3.778-8.733h3.124l2.162 5.265 2.306-5.265h3.125zM81.28 42.879h3.76c-.273-.97-1-1.42-1.834-1.42-.818 0-1.653.503-1.926 1.42zm6.63 1.76h-6.685c.237 1.079.981 1.744 1.962 1.744.672 0 1.453-.162 1.943-1.042l2.58.52c-.781 1.905-2.434 2.822-4.523 2.822-2.633 0-4.813-1.923-4.813-4.78 0-2.839 2.18-4.78 4.832-4.78 2.579 0 4.65 1.833 4.704 4.78v.736zM96.026 43.903c0-1.384-1.053-2.336-2.234-2.336-1.271 0-2.198.952-2.198 2.336 0 1.401.927 2.335 2.198 2.335 1.18 0 2.234-.934 2.234-2.335zm2.906 4.51h-2.906v-.719c-.708.629-1.653.989-2.834.989-2.415 0-4.45-1.923-4.45-4.78 0-2.839 2.035-4.78 4.45-4.78 1.181 0 2.126.36 2.834.988v-.718h2.906v9.02zM103.114 45.484c.127.773.836 1.06 1.617 1.06.763 0 1.18-.323 1.18-.718 0-.306-.236-.54-.908-.665l-1.853-.36c-1.688-.305-2.651-1.203-2.651-2.623 0-1.85 1.616-3.054 3.923-3.054 2.27 0 3.778 1.024 4.142 2.587l-2.652.521c-.092-.557-.636-1.06-1.526-1.06-.781 0-1.035.377-1.035.7 0 .252.108.504.69.63l2.143.43c1.725.36 2.525 1.385 2.525 2.714 0 1.994-1.744 3.037-4.142 3.037-2.143 0-3.977-.773-4.286-2.624l2.833-.575zM114.317 51.468h-3.142l1.47-3.36-3.777-8.733h3.124l2.161 5.265 2.307-5.265h3.124zM132.697 43.903c-.562 3.018-3.015 4.78-6.14 4.78-3.614 0-6.465-2.75-6.465-6.29 0-3.521 2.851-6.288 6.466-6.288 2.997 0 5.54 1.76 6.121 4.618l-2.943.682c-.381-1.743-1.616-2.587-3.178-2.587-1.926 0-3.469 1.527-3.469 3.575 0 2.049 1.543 3.595 3.469 3.595 1.544 0 2.78-.863 3.197-2.66l2.942.575zM140.994 39.339l-.127 2.875h-.528c-2.034 0-3.142 1.042-3.142 3.378v2.821h-2.906v-9.02h2.906v1.725c.654-1.078 1.654-1.85 3.142-1.85.255 0 .436.017.655.071M144.397 42.879h3.76c-.273-.97-1-1.42-1.835-1.42-.817 0-1.653.503-1.925 1.42zm6.63 1.76h-6.685c.236 1.079.98 1.744 1.962 1.744.672 0 1.453-.162 1.943-1.042l2.58.52c-.781 1.905-2.435 2.822-4.523 2.822-2.635 0-4.814-1.923-4.814-4.78 0-2.839 2.18-4.78 4.832-4.78 2.578 0 4.65 1.833 4.705 4.78v.736zM159.142 43.903c0-1.384-1.053-2.336-2.234-2.336-1.272 0-2.198.952-2.198 2.336 0 1.401.926 2.335 2.198 2.335 1.18 0 2.234-.934 2.234-2.335zm2.906 4.51h-2.906v-.719c-.708.629-1.653.989-2.833.989-2.416 0-4.45-1.923-4.45-4.78 0-2.839 2.034-4.78 4.45-4.78 1.18 0 2.125.36 2.833.988v-4.635h2.906v12.937zM164.056 48.413h2.907v-9.02h-2.907v9.02zm3.143-11.679c0 .916-.708 1.599-1.69 1.599-.98 0-1.67-.683-1.67-1.599 0-.88.69-1.635 1.67-1.635.982 0 1.69.754 1.69 1.635zM175.69 48.018c-.708.377-1.452.665-2.488.665-2.27 0-3.633-1.222-3.633-3.595v-3.413h-1.652v-2.282h1.652v-2.66h2.907v2.66h2.688v2.282h-2.688v3.126c0 .935.453 1.312 1.216 1.312.4 0 .945-.144 1.327-.36l.672 2.265zM237.095 24.775c0 12.525-10.153 22.678-22.679 22.678-12.525 0-22.678-10.153-22.678-22.678 0-12.526 10.153-22.68 22.678-22.68 12.526 0 22.68 10.154 22.68 22.68" fill="#005DA9"/><path d="M216.966 10.306h-6.299a7.074 7.074 0 00-7.073 7.075v14.15a7.074 7.074 0 017.073-7.075l6.3-.002a7.074 7.074 0 100-14.148" fill="#FFF"/><path d="M210.668 24.455c-3.823 0-6.929 3.034-7.062 6.824h-.013v7.324h21.86l-14.785-14.148z" fill="#EC6608"/></g></svg>
